X: 3
T: The Green Mountain
R: reel
M: 4/4
L: 1/8
K: Dmaj
|:"D"A~F3 AFEF|D~F3 ABde|"G"~f3d efdB|"A"Adfd edBd|
"D"A~F3 AFEF|D~F3 ABde|"G"~f3d efdB|1 "A"AFEF "D"D2 dB :|2 "A"AFEF "D"D2 de||
|:"D"f~a3 bafe|f2 af efde|"G"f2 df efdB|"A"Adfd edBd|
"D"f~a3 bafe|f2 af efde|"G"f2 df efdB|1 "A"AFEF "D"D2 de:|2 "A"AFEF "D"D2 dB||


